svg/blobs-icons/no-decorations/glue.svg

<svg xmlns="http://www.w3.org/2000/svg" xmlns:xlink="http://www.w3.org/1999/xlink" preserveAspectRatio="xMidYMid" width="224" height="223" viewBox="0 0 224 223"><defs><style>.cls-3{fill:#fbb713}.cls-4{fill:#000;opacity:.25}.cls-5{fill:#142a3b}.cls-8{fill:#000;opacity:.35}.cls-11{fill:#ededed}</style></defs><g id="group-105svg"><path d="M78.874 221.037S1.896 144.06 1.896 144.06C-.642 141.523-.642 137.407 1.896 134.868L99.453 37.316c2.538-2.539 6.654-2.539 9.19199999999999.0l76.979 76.975C188.162 116.829 188.162 120.945 185.624 123.483L88.067 221.037C85.529 223.575 81.413 223.575 78.874 221.037z" id="path-1" class="cls-3" fill-rule="evenodd"/><path d="M176.485 106.861C175.996 112.796 173.495 118.598 168.953 123.141L99.066 193.025c-10.18 10.179-26.683 10.179-36.862.0L12.895 143.717C10.96 141.783 9.398 139.619 8.199 137.314 7.593 144.681 10.094 152.258 15.73 157.896l49.31 49.306c10.179 10.179 26.682 10.179 36.861.0l69.888-69.886C180.034 129.072 181.595 116.681 176.485 106.861z" id="path-2" class="cls-4" fill-rule="evenodd"/><path d="M164.298 95.282s-36.644-36.641-36.644-36.641 16.123-16.123 16.123-16.123S180.42 79.159 180.42 79.159s-16.122 16.123-16.122 16.123z" id="path-3" class="cls-5" fill-rule="evenodd"/><path d="M181.479 80.218s-38.76-38.759-38.76-38.759C141.215 39.956 141.538 37.437 143.373 36.362L180.088 14.84C181.363 14.092 182.981 14.3 184.027 15.345l23.567 23.567C208.639 39.957 208.847 41.575 208.099 42.85L186.577 79.565C185.501 81.398 182.982 81.722 181.479 80.218z" id="path-4" class="cls-5" fill-rule="evenodd"/><path d="M188.564 19.739S217.224.622 217.224.622C220.565-1.608 224.547 2.374 222.318 5.717L203.201 34.375s-14.637-14.636-14.637-14.636z" id="path-5" class="cls-5" fill-rule="evenodd"/><path d="M143.777 42.518s26.697 35.246 26.697 35.246S164.298 83.941 164.298 83.941s-30.972-30.97-30.972-30.97S127.655 58.641 127.655 58.641s36.643 36.641 36.643 36.641 16.123-16.123 16.123-16.123-36.644-36.641-36.644-36.641z" id="path-6" class="cls-8" fill-rule="evenodd"/><path d="M186.577 79.565s21.522-36.714 21.522-36.714C208.847 41.575 208.639 39.957 207.594 38.912L201.923 33.241C202.968 34.286 203.176 35.904 202.429 37.179L180.906 73.893C179.83 75.727 177.312 76.051 175.808 74.547L181.479 80.218C182.983 81.722 185.501 81.398 186.577 79.565z" id="path-7" class="cls-8" fill-rule="evenodd"/><path d="M222.318 5.717C224.547 2.375 220.565-1.606 217.224.622l-1.732 1.154S197.53 28.703 197.53 28.703 203.201 34.375 203.201 34.375 222.318 5.717 222.318 5.717z" id="path-8" class="cls-8" fill-rule="evenodd"/><path d="M100.722 180.841s-58.628-58.628-58.628-58.628S86.798 77.511 86.798 77.511s58.628 58.627 58.628 58.627-44.704 44.703-44.704 44.703z" id="path-9" class="cls-11" fill-rule="evenodd"/><path d="M142.591 138.973s-41.869 41.868-41.869 41.868-55.793-55.792-55.793-55.792S42.094 127.884 42.094 127.884s58.628 58.628 58.628 58.628 44.704-44.703 44.704-44.703S142.591 138.973 142.591 138.973z" id="path-10" class="cls-8" fill-rule="evenodd"/></g></svg>

<svg xmlns="http://www.w3.org/2000/svg" xmlns:xlink="http://www.w3.org/1999/xlink" preserveAspectRatio="xMidYMid" width="224" height="223" viewBox="0 0 224 223">
  <defs>
    <style>

      .cls-3 {
        fill: #fbb713;
      }

      .cls-4 {
        fill: #000000;
        opacity: 0.25;
      }

      .cls-5 {
        fill: #142a3b;
      }

      .cls-8 {
        fill: #000000;
        opacity: 0.35;
      }

      .cls-11 {
        fill: #ededed;
      }
    </style>
  </defs>
  <g id="group-105svg">
    <path d="M78.874,221.037 C78.874,221.037 1.896,144.060 1.896,144.060 C-0.642,141.523 -0.642,137.407 1.896,134.868 C1.896,134.868 99.453,37.316 99.453,37.316 C101.991,34.777 106.107,34.777 108.645,37.316 C108.645,37.316 185.624,114.291 185.624,114.291 C188.162,116.829 188.162,120.945 185.624,123.483 C185.624,123.483 88.067,221.037 88.067,221.037 C85.529,223.575 81.413,223.575 78.874,221.037 Z" id="path-1" class="cls-3" fill-rule="evenodd"/>
    <path d="M176.485,106.861 C175.996,112.796 173.495,118.598 168.953,123.141 C168.953,123.141 99.066,193.025 99.066,193.025 C88.886,203.204 72.383,203.204 62.204,193.025 C62.204,193.025 12.895,143.717 12.895,143.717 C10.960,141.783 9.398,139.619 8.199,137.314 C7.593,144.681 10.094,152.258 15.730,157.896 C15.730,157.896 65.040,207.202 65.040,207.202 C75.219,217.381 91.722,217.381 101.901,207.202 C101.901,207.202 171.789,137.316 171.789,137.316 C180.034,129.072 181.595,116.681 176.485,106.861 Z" id="path-2" class="cls-4" fill-rule="evenodd"/>
    <path d="M164.298,95.282 C164.298,95.282 127.654,58.641 127.654,58.641 C127.654,58.641 143.777,42.518 143.777,42.518 C143.777,42.518 180.420,79.159 180.420,79.159 C180.420,79.159 164.298,95.282 164.298,95.282 Z" id="path-3" class="cls-5" fill-rule="evenodd"/>
    <path d="M181.479,80.218 C181.479,80.218 142.719,41.459 142.719,41.459 C141.215,39.956 141.538,37.437 143.373,36.362 C143.373,36.362 180.088,14.840 180.088,14.840 C181.363,14.092 182.981,14.300 184.027,15.345 C184.027,15.345 207.594,38.912 207.594,38.912 C208.639,39.957 208.847,41.575 208.099,42.850 C208.099,42.850 186.577,79.565 186.577,79.565 C185.501,81.398 182.982,81.722 181.479,80.218 Z" id="path-4" class="cls-5" fill-rule="evenodd"/>
    <path d="M188.564,19.739 C188.564,19.739 217.224,0.622 217.224,0.622 C220.565,-1.608 224.547,2.374 222.318,5.717 C222.318,5.717 203.201,34.375 203.201,34.375 C203.201,34.375 188.564,19.739 188.564,19.739 Z" id="path-5" class="cls-5" fill-rule="evenodd"/>
    <path d="M143.777,42.518 C143.777,42.518 170.474,77.764 170.474,77.764 C170.474,77.764 164.298,83.941 164.298,83.941 C164.298,83.941 133.326,52.971 133.326,52.971 C133.326,52.971 127.655,58.641 127.655,58.641 C127.655,58.641 164.298,95.282 164.298,95.282 C164.298,95.282 180.421,79.159 180.421,79.159 C180.421,79.159 143.777,42.518 143.777,42.518 Z" id="path-6" class="cls-8" fill-rule="evenodd"/>
    <path d="M186.577,79.565 C186.577,79.565 208.099,42.851 208.099,42.851 C208.847,41.575 208.639,39.957 207.594,38.912 C207.594,38.912 201.923,33.241 201.923,33.241 C202.968,34.286 203.176,35.904 202.429,37.179 C202.429,37.179 180.906,73.893 180.906,73.893 C179.830,75.727 177.312,76.051 175.808,74.547 C175.808,74.547 181.479,80.218 181.479,80.218 C182.983,81.722 185.501,81.398 186.577,79.565 Z" id="path-7" class="cls-8" fill-rule="evenodd"/>
    <path d="M222.318,5.717 C224.547,2.375 220.565,-1.606 217.224,0.622 C217.224,0.622 215.492,1.776 215.492,1.776 C215.492,1.776 197.530,28.703 197.530,28.703 C197.530,28.703 203.201,34.375 203.201,34.375 C203.201,34.375 222.318,5.717 222.318,5.717 Z" id="path-8" class="cls-8" fill-rule="evenodd"/>
    <path d="M100.722,180.841 C100.722,180.841 42.094,122.213 42.094,122.213 C42.094,122.213 86.798,77.511 86.798,77.511 C86.798,77.511 145.426,136.138 145.426,136.138 C145.426,136.138 100.722,180.841 100.722,180.841 Z" id="path-9" class="cls-11" fill-rule="evenodd"/>
    <path d="M142.591,138.973 C142.591,138.973 100.722,180.841 100.722,180.841 C100.722,180.841 44.929,125.049 44.929,125.049 C44.929,125.049 42.094,127.884 42.094,127.884 C42.094,127.884 100.722,186.512 100.722,186.512 C100.722,186.512 145.426,141.809 145.426,141.809 C145.426,141.809 142.591,138.973 142.591,138.973 Z" id="path-10" class="cls-8" fill-rule="evenodd"/>
  </g>
</svg>
